static/images/icons/gradients/discussion.svg

<svg width="40" height="40" viewBox="0 0 40 40" fill="none" xmlns="http://www.w3.org/2000/svg">
<g clip-path="url(#clip0_1025_2517)">
<path d="M32.5 36V32.5H34C35.6569 32.5 37 31.1569 37 29.5V20C37 18.3431 35.6569 17 34 17H19C17.3431 17 16 18.3431 16 20V29.5C16 31.1569 17.3431 32.5 19 32.5H28L32.5 36Z" fill="url(#paint0_linear_1025_2517)"/>
<path d="M32.5 32.5V31.9H31.9V32.5H32.5ZM32.5 36L32.1316 36.4736C32.3125 36.6143 32.5578 36.6397 32.7636 36.539C32.9695 36.4383 33.1 36.2292 33.1 36H32.5ZM28 32.5L28.3684 32.0264L28.2059 31.9H28V32.5ZM31.9 32.5V36H33.1V32.5H31.9ZM32.8684 35.5264L28.3684 32.0264L27.6316 32.9736L32.1316 36.4736L32.8684 35.5264ZM28 31.9H19V33.1H28V31.9ZM16.6 29.5V20H15.4V29.5H16.6ZM19 17.6H34V16.4H19V17.6ZM36.4 20V29.5H37.6V20H36.4ZM34 31.9H32.5V33.1H34V31.9ZM36.4 29.5C36.4 30.8255 35.3255 31.9 34 31.9V33.1C35.9882 33.1 37.6 31.4882 37.6 29.5H36.4ZM34 17.6C35.3255 17.6 36.4 18.6745 36.4 20H37.6C37.6 18.0118 35.9882 16.4 34 16.4V17.6ZM16.6 20C16.6 18.6745 17.6745 17.6 19 17.6V16.4C17.0118 16.4 15.4 18.0118 15.4 20H16.6ZM19 31.9C17.6745 31.9 16.6 30.8255 16.6 29.5H15.4C15.4 31.4882 17.0118 33.1 19 33.1V31.9Z" fill="#FD366E"/>
<path d="M7.5 23V19.5H6C4.34315 19.5 3 18.1569 3 16.5V7C3 5.34315 4.34315 4 6 4H21C22.6569 4 24 5.34315 24 7V17H19.0311C17.8044 17 16.7013 17.7469 16.2457 18.8858L16 19.5H12L7.5 23Z" fill="url(#paint1_linear_1025_2517)"/>
<path d="M7.5 19.5V18.9H8.1V19.5H7.5ZM7.5 23L7.86836 23.4736C7.68748 23.6143 7.44225 23.6397 7.23639 23.539C7.03053 23.4383 6.9 23.2292 6.9 23H7.5ZM12 19.5L11.6316 19.0264L11.7941 18.9H12V19.5ZM16 19.5L16.5571 19.7228L16.4062 20.1H16V19.5ZM24 17H24.6V17.6H24V17ZM16.2457 18.8858L16.8028 19.1087L16.2457 18.8858ZM8.1 19.5V23H6.9V19.5H8.1ZM7.13164 22.5264L11.6316 19.0264L12.3684 19.9736L7.86836 23.4736L7.13164 22.5264ZM21 4.6H6V3.4H21V4.6ZM3.6 7V16.5H2.4V7H3.6ZM6 18.9H7.5V20.1H6V18.9ZM12 18.9H16V20.1H12V18.9ZM23.4 17V7H24.6V17H23.4ZM24 17.6H19.0311V16.4H24V17.6ZM16.8028 19.1087L16.5571 19.7228L15.4429 19.2772L15.6886 18.663L16.8028 19.1087ZM3.6 16.5C3.6 17.8255 4.67452 18.9 6 18.9V20.1C4.01177 20.1 2.4 18.4882 2.4 16.5H3.6ZM6 4.6C4.67452 4.6 3.6 5.67452 3.6 7H2.4C2.4 5.01177 4.01177 3.4 6 3.4V4.6ZM19.0311 17.6C18.0497 17.6 17.1672 18.1975 16.8028 19.1087L15.6886 18.663C16.2353 17.2962 17.559 16.4 19.0311 16.4V17.6ZM21 3.4C22.9882 3.4 24.6 5.01177 24.6 7H23.4C23.4 5.67452 22.3255 4.6 21 4.6V3.4Z" fill="#FD366E"/>
</g>
<defs>
<linearGradient id="paint0_linear_1025_2517" x1="26.5" y1="17" x2="26.5" y2="36" gradientUnits="userSpaceOnUse">
<stop stop-color="#FD366E" stop-opacity="0"/>
<stop offset="1" stop-color="#FD366E" stop-opacity="0.4"/>
</linearGradient>
<linearGradient id="paint1_linear_1025_2517" x1="13.5" y1="4" x2="13.5" y2="23" gradientUnits="userSpaceOnUse">
<stop stop-color="#FD366E" stop-opacity="0"/>
<stop offset="1" stop-color="#FD366E" stop-opacity="0.4"/>
</linearGradient>
<clipPath id="clip0_1025_2517">
<rect width="40" height="40" fill="white"/>
</clipPath>
</defs>
</svg>

<svg xmlns="http://www.w3.org/2000/svg" width="40" height="40" fill="none"><g clip-path="url(#a)"><path fill="url(#b)" d="M32.5 36v-3.5H34a3 3 0 0 0 3-3V20a3 3 0 0 0-3-3H19a3 3 0 0 0-3 3v9.5a3 3 0 0 0 3 3h9l4.5 3.5Z"/><path fill="#FD366E" d="M32.5 32.5v-.6h-.6v.6h.6Zm0 3.5-.368.474A.6.6 0 0 0 33.1 36h-.6ZM28 32.5l.368-.474-.162-.126H28v.6Zm3.9 0V36h1.2v-3.5h-1.2Zm.968 3.026-4.5-3.5-.736.948 4.5 3.5.736-.948ZM28 31.9h-9v1.2h9v-1.2Zm-11.4-2.4V20h-1.2v9.5h1.2ZM19 17.6h15v-1.2H19v1.2ZM36.4 20v9.5h1.2V20h-1.2ZM34 31.9h-1.5v1.2H34v-1.2Zm2.4-2.4a2.4 2.4 0 0 1-2.4 2.4v1.2a3.6 3.6 0 0 0 3.6-3.6h-1.2ZM34 17.6a2.4 2.4 0 0 1 2.4 2.4h1.2a3.6 3.6 0 0 0-3.6-3.6v1.2ZM16.6 20a2.4 2.4 0 0 1 2.4-2.4v-1.2a3.6 3.6 0 0 0-3.6 3.6h1.2ZM19 31.9a2.4 2.4 0 0 1-2.4-2.4h-1.2a3.6 3.6 0 0 0 3.6 3.6v-1.2Z"/><path fill="url(#c)" d="M7.5 23v-3.5H6a3 3 0 0 1-3-3V7a3 3 0 0 1 3-3h15a3 3 0 0 1 3 3v10h-4.969a3 3 0 0 0-2.785 1.886L16 19.5h-4L7.5 23Z"/><path fill="#FD366E" d="M7.5 19.5v-.6h.6v.6h-.6Zm0 3.5.368.474A.6.6 0 0 1 6.9 23h.6Zm4.5-3.5-.368-.474.162-.126H12v.6Zm4 0 .557.223-.15.377H16v-.6Zm8-2.5h.6v.6H24V17Zm-7.754 1.886.557.223-.557-.223ZM8.1 19.5V23H6.9v-3.5h1.2Zm-.968 3.026 4.5-3.5.736.948-4.5 3.5-.736-.948ZM21 4.6H6V3.4h15v1.2ZM3.6 7v9.5H2.4V7h1.2ZM6 18.9h1.5v1.2H6v-1.2Zm6 0h4v1.2h-4v-1.2ZM23.4 17V7h1.2v10h-1.2Zm.6.6h-4.969v-1.2H24v1.2Zm-7.197 1.509-.246.614-1.114-.446.246-.614 1.114.446ZM3.6 16.5A2.4 2.4 0 0 0 6 18.9v1.2a3.6 3.6 0 0 1-3.6-3.6h1.2ZM6 4.6A2.4 2.4 0 0 0 3.6 7H2.4A3.6 3.6 0 0 1 6 3.4v1.2Zm13.031 13a2.4 2.4 0 0 0-2.228 1.509l-1.114-.446A3.6 3.6 0 0 1 19.03 16.4v1.2ZM21 3.4A3.6 3.6 0 0 1 24.6 7h-1.2A2.4 2.4 0 0 0 21 4.6V3.4Z"/></g><defs><linearGradient id="b" x1="26.5" x2="26.5" y1="17" y2="36" gradientUnits="userSpaceOnUse"><stop stop-color="#FD366E" stop-opacity="0"/><stop offset="1" stop-color="#FD366E" stop-opacity=".4"/></linearGradient><linearGradient id="c" x1="13.5" x2="13.5" y1="4" y2="23" gradientUnits="userSpaceOnUse"><stop stop-color="#FD366E" stop-opacity="0"/><stop offset="1" stop-color="#FD366E" stop-opacity=".4"/></linearGradient><clipPath id="a"><path fill="#fff" d="M0 0h40v40H0z"/></clipPath></defs></svg>
